images/3234767.svg

<?xml version="1.0" encoding="UTF-8"?>
<svg xmlns="http://www.w3.org/2000/svg" xmlns:xlink="http://www.w3.org/1999/xlink" width="300pt" height="300pt" viewBox="0 0 300 300" version="1.1">
<defs>
<g>
<symbol overflow="visible" id="glyph0-0">
<path style="stroke:none;" d="M 0.640625 2.296875 L 0.640625 -9.171875 L 7.140625 -9.171875 L 7.140625 2.296875 Z M 1.375 1.578125 L 6.421875 1.578125 L 6.421875 -8.4375 L 1.375 -8.4375 Z M 1.375 1.578125 "/>
</symbol>
<symbol overflow="visible" id="glyph0-1">
<path style="stroke:none;" d="M 1.28125 -9.484375 L 3 -9.484375 L 7.203125 -1.546875 L 7.203125 -9.484375 L 8.453125 -9.484375 L 8.453125 0 L 6.71875 0 L 2.515625 -7.921875 L 2.515625 0 L 1.28125 0 Z M 1.28125 -9.484375 "/>
</symbol>
<symbol overflow="visible" id="glyph0-2">
<path style="stroke:none;" d="M 1.28125 -9.484375 L 2.5625 -9.484375 L 2.5625 -5.59375 L 7.21875 -5.59375 L 7.21875 -9.484375 L 8.5 -9.484375 L 8.5 0 L 7.21875 0 L 7.21875 -4.515625 L 2.5625 -4.515625 L 2.5625 0 L 1.28125 0 Z M 1.28125 -9.484375 "/>
</symbol>
</g>
</defs>
<g id="surface45313">
<rect x="0" y="0" width="300" height="300" style="fill:rgb(100%,100%,100%);fill-opacity:1;stroke:none;"/>
<path style="fill:none;stroke-width:1.2;stroke-linecap:butt;stroke-linejoin:miter;stroke:rgb(0%,0%,0%);stroke-opacity:1;stroke-miterlimit:10;" d="M 256.632812 188.984375 L 224.878906 197.941406 "/>
<path style="fill:none;stroke-width:1.2;stroke-linecap:butt;stroke-linejoin:miter;stroke:rgb(0%,0%,0%);stroke-opacity:1;stroke-miterlimit:10;" d="M 264.75 157.003906 L 256.632812 188.984375 "/>
<path style="fill:none;stroke-width:1;stroke-linecap:butt;stroke-linejoin:miter;stroke:rgb(0%,0%,0%);stroke-opacity:1;stroke-miterlimit:10;" d="M 201.238281 174.921875 L 201.238281 174.921875 M 202.992188 177.355469 L 203.71875 176.609375 M 204.746094 179.792969 L 206.199219 178.296875 M 206.5 182.226562 L 208.679688 179.984375 M 208.25 184.660156 L 211.160156 181.671875 M 210.003906 187.097656 L 213.640625 183.359375 M 211.757812 189.53125 L 216.121094 185.046875 M 213.507812 191.964844 L 218.601562 186.738281 M 215.261719 194.398438 L 221.082031 188.425781 M 217.015625 196.835938 L 223.5625 190.113281 M 218.765625 199.269531 L 226.042969 191.800781 M 220.519531 201.703125 L 228.523438 193.488281 M 220.816406 202.113281 L 228.941406 193.769531 "/>
<path style="fill:none;stroke-width:1.2;stroke-linecap:butt;stroke-linejoin:miter;stroke:rgb(0%,0%,0%);stroke-opacity:1;stroke-miterlimit:10;" d="M 201.238281 174.921875 L 189.824219 205.878906 "/>
<path style="fill:none;stroke-width:1.2;stroke-linecap:butt;stroke-linejoin:miter;stroke:rgb(0%,0%,0%);stroke-opacity:1;stroke-miterlimit:10;" d="M 201.238281 174.921875 L 209.359375 142.941406 "/>
<path style="fill:none;stroke-width:1.2;stroke-linecap:butt;stroke-linejoin:miter;stroke:rgb(0%,0%,0%);stroke-opacity:1;stroke-miterlimit:10;" d="M 175.328125 154.5 L 201.238281 174.921875 "/>
<path style="fill:none;stroke-width:1.2;stroke-linecap:butt;stroke-linejoin:miter;stroke:rgb(0%,0%,0%);stroke-opacity:1;stroke-miterlimit:10;" d="M 189.824219 205.878906 L 156.855469 204.585938 "/>
<path style="fill:none;stroke-width:1.2;stroke-linecap:butt;stroke-linejoin:miter;stroke:rgb(0%,0%,0%);stroke-opacity:1;stroke-miterlimit:10;" d="M 156.855469 204.585938 L 152.375 188.710938 "/>
<path style="fill:none;stroke-width:1.2;stroke-linecap:butt;stroke-linejoin:miter;stroke:rgb(0%,0%,100%);stroke-opacity:1;stroke-miterlimit:10;" d="M 152.375 188.710938 L 147.894531 172.832031 "/>
<path style="fill:none;stroke-width:1.2;stroke-linecap:butt;stroke-linejoin:miter;stroke:rgb(0%,0%,100%);stroke-opacity:1;stroke-miterlimit:10;" d="M 147.894531 172.832031 L 161.609375 163.664062 "/>
<path style="fill:none;stroke-width:1.2;stroke-linecap:butt;stroke-linejoin:miter;stroke:rgb(0%,0%,0%);stroke-opacity:1;stroke-miterlimit:10;" d="M 161.609375 163.664062 L 175.328125 154.5 "/>
<path style="fill:none;stroke-width:1.2;stroke-linecap:butt;stroke-linejoin:miter;stroke:rgb(0%,0%,100%);stroke-opacity:1;stroke-miterlimit:10;" d="M 147.894531 172.832031 L 132.414062 167.125 "/>
<path style="fill:none;stroke-width:1.2;stroke-linecap:butt;stroke-linejoin:miter;stroke:rgb(0%,0%,0%);stroke-opacity:1;stroke-miterlimit:10;" d="M 132.414062 167.125 L 116.9375 161.417969 "/>
<path style=" stroke:none;fill-rule:nonzero;fill:rgb(100%,100%,100%);fill-opacity:1;" d="M 142.894531 164.832031 L 152.894531 164.832031 L 152.894531 180.832031 L 142.894531 180.832031 Z M 142.894531 164.832031 "/>
<g style="fill:rgb(0%,0%,100%);fill-opacity:1;">
  <use xlink:href="#glyph0-1" x="142.894531" y="177.208008"/>
</g>
<path style="fill:none;stroke-width:1.2;stroke-linecap:butt;stroke-linejoin:miter;stroke:rgb(0%,0%,0%);stroke-opacity:1;stroke-miterlimit:10;" d="M 116.9375 161.417969 L 111.347656 128.898438 "/>
<path style="fill:none;stroke-width:1.2;stroke-linecap:butt;stroke-linejoin:miter;stroke:rgb(0%,0%,0%);stroke-opacity:1;stroke-miterlimit:10;" d="M 116.9375 161.417969 L 91.570312 182.519531 "/>
<path style="fill:none;stroke-width:1.2;stroke-linecap:butt;stroke-linejoin:miter;stroke:rgb(0%,0%,0%);stroke-opacity:1;stroke-miterlimit:10;" d="M 111.347656 128.898438 L 136.710938 107.796875 "/>
<path style="fill:none;stroke-width:1.2;stroke-linecap:butt;stroke-linejoin:miter;stroke:rgb(0%,0%,0%);stroke-opacity:1;stroke-miterlimit:10;" d="M 108.917969 120.820312 L 129.210938 103.9375 "/>
<path style="fill:none;stroke-width:1.2;stroke-linecap:butt;stroke-linejoin:miter;stroke:rgb(0%,0%,0%);stroke-opacity:1;stroke-miterlimit:10;" d="M 80.390625 117.480469 L 111.347656 128.898438 "/>
<path style="fill:none;stroke-width:1.2;stroke-linecap:butt;stroke-linejoin:miter;stroke:rgb(0%,0%,0%);stroke-opacity:1;stroke-miterlimit:10;" d="M 136.710938 107.796875 L 131.121094 75.28125 "/>
<path style="fill:none;stroke-width:1.2;stroke-linecap:butt;stroke-linejoin:miter;stroke:rgb(0%,0%,0%);stroke-opacity:1;stroke-miterlimit:10;" d="M 131.121094 75.28125 L 100.164062 63.863281 "/>
<path style="fill:none;stroke-width:1.2;stroke-linecap:butt;stroke-linejoin:miter;stroke:rgb(0%,0%,0%);stroke-opacity:1;stroke-miterlimit:10;" d="M 125.335938 81.421875 L 100.570312 72.289062 "/>
<path style="fill:none;stroke-width:1.2;stroke-linecap:butt;stroke-linejoin:miter;stroke:rgb(0%,0%,0%);stroke-opacity:1;stroke-miterlimit:10;" d="M 100.164062 63.863281 L 74.796875 84.964844 "/>
<path style="fill:none;stroke-width:1.2;stroke-linecap:butt;stroke-linejoin:miter;stroke:rgb(0%,0%,0%);stroke-opacity:1;stroke-miterlimit:10;" d="M 74.796875 84.964844 L 80.390625 117.480469 "/>
<path style="fill:none;stroke-width:1.2;stroke-linecap:butt;stroke-linejoin:miter;stroke:rgb(0%,0%,0%);stroke-opacity:1;stroke-miterlimit:10;" d="M 83.007812 86.902344 L 87.480469 112.914062 "/>
<path style="fill:none;stroke-width:1.2;stroke-linecap:butt;stroke-linejoin:miter;stroke:rgb(0%,0%,0%);stroke-opacity:1;stroke-miterlimit:10;" d="M 91.570312 182.519531 L 60.617188 171.101562 "/>
<path style="fill:none;stroke-width:1.2;stroke-linecap:butt;stroke-linejoin:miter;stroke:rgb(0%,0%,0%);stroke-opacity:1;stroke-miterlimit:10;" d="M 85.789062 188.660156 L 61.023438 179.527344 "/>
<path style="fill:none;stroke-width:1.2;stroke-linecap:butt;stroke-linejoin:miter;stroke:rgb(0%,0%,0%);stroke-opacity:1;stroke-miterlimit:10;" d="M 97.164062 215.035156 L 91.570312 182.519531 "/>
<path style="fill:none;stroke-width:1.2;stroke-linecap:butt;stroke-linejoin:miter;stroke:rgb(0%,0%,0%);stroke-opacity:1;stroke-miterlimit:10;" d="M 60.617188 171.101562 L 35.25 192.203125 "/>
<path style="fill:none;stroke-width:1.2;stroke-linecap:butt;stroke-linejoin:miter;stroke:rgb(0%,0%,0%);stroke-opacity:1;stroke-miterlimit:10;" d="M 35.25 192.203125 L 40.839844 224.71875 "/>
<path style="fill:none;stroke-width:1.2;stroke-linecap:butt;stroke-linejoin:miter;stroke:rgb(0%,0%,0%);stroke-opacity:1;stroke-miterlimit:10;" d="M 43.460938 194.136719 L 47.933594 220.152344 "/>
<path style="fill:none;stroke-width:1.2;stroke-linecap:butt;stroke-linejoin:miter;stroke:rgb(0%,0%,0%);stroke-opacity:1;stroke-miterlimit:10;" d="M 40.839844 224.71875 L 71.796875 236.136719 "/>
<path style="fill:none;stroke-width:1.2;stroke-linecap:butt;stroke-linejoin:miter;stroke:rgb(0%,0%,0%);stroke-opacity:1;stroke-miterlimit:10;" d="M 71.796875 236.136719 L 97.164062 215.035156 "/>
<path style="fill:none;stroke-width:1.2;stroke-linecap:butt;stroke-linejoin:miter;stroke:rgb(0%,0%,0%);stroke-opacity:1;stroke-miterlimit:10;" d="M 69.371094 228.058594 L 89.664062 211.175781 "/>
<path style="fill:none;stroke-width:1.2;stroke-linecap:butt;stroke-linejoin:miter;stroke:rgb(0%,0%,0%);stroke-opacity:1;stroke-miterlimit:10;" d="M 209.359375 142.941406 L 225.234375 138.460938 "/>
<path style="fill:none;stroke-width:1.2;stroke-linecap:butt;stroke-linejoin:miter;stroke:rgb(0%,0%,100%);stroke-opacity:1;stroke-miterlimit:10;" d="M 225.234375 138.460938 L 241.113281 133.980469 "/>
<path style="fill:none;stroke-width:1.2;stroke-linecap:butt;stroke-linejoin:miter;stroke:rgb(0%,0%,100%);stroke-opacity:1;stroke-miterlimit:10;" d="M 241.113281 133.980469 L 252.929688 145.492188 "/>
<path style="fill:none;stroke-width:1.2;stroke-linecap:butt;stroke-linejoin:miter;stroke:rgb(0%,0%,0%);stroke-opacity:1;stroke-miterlimit:10;" d="M 252.929688 145.492188 L 264.75 157.003906 "/>
<path style=" stroke:none;fill-rule:nonzero;fill:rgb(100%,100%,100%);fill-opacity:1;" d="M 231.113281 125.980469 L 251.113281 125.980469 L 251.113281 141.980469 L 231.113281 141.980469 Z M 231.113281 125.980469 "/>
<g style="fill:rgb(0%,0%,100%);fill-opacity:1;">
  <use xlink:href="#glyph0-1" x="231.113281" y="138.356445"/>
  <use xlink:href="#glyph0-2" x="241.083008" y="138.356445"/>
</g>
</g>
</svg>

<svg xmlns="http://www.w3.org/2000/svg" xmlns:xlink="http://www.w3.org/1999/xlink" width="300pt" height="300pt" viewBox="0 0 300 300"><defs><symbol overflow="visible"><path d="M.64 2.297v-11.47h6.5v11.47zm.735-.72h5.047V-8.436H1.375zm0 0"/></symbol><symbol overflow="visible" id="a"><path d="M1.28-9.484H3l4.203 7.937v-7.937h1.25V0H6.72L2.515-7.922V0H1.28zm0 0"/></symbol><symbol overflow="visible" id="b"><path d="M1.28-9.484h1.282v3.89H7.22v-3.89H8.5V0H7.22v-4.516H2.562V0H1.28zm0 0"/></symbol></defs><g><path fill="#fff" d="M0 0h300v300H0z"/><path d="M256.633 188.984l-31.754 8.957M264.75 157.004l-8.117 31.98" stroke-width="1.2" stroke="#000" stroke-miterlimit="10" fill="none"/><path d="M201.238 174.922m1.754 2.433l.727-.746m1.026 3.183l1.453-1.496m.3 3.93l2.18-2.243m-.43 4.676l2.91-2.988m-1.156 5.426l3.637-3.74m-1.882 6.173l4.363-4.483m-2.612 6.918l5.094-5.227m-3.34 7.66l5.82-5.972m-4.066 8.41l6.547-6.723m-4.797 9.157l7.277-7.47m-5.523 9.903l8.003-8.215m-7.707 8.625l8.125-8.343" stroke="#000" stroke-miterlimit="10" fill="none"/><path d="M201.238 174.922l-11.414 30.957M201.238 174.922l8.12-31.98M175.328 154.5l25.91 20.422M189.824 205.88l-32.97-1.294M156.855 204.586l-4.48-15.875" stroke-width="1.2" stroke="#000" stroke-miterlimit="10" fill="none"/><path d="M152.375 188.71l-4.48-15.878M147.895 172.832l13.714-9.168" stroke-width="1.2" stroke="#00f" stroke-miterlimit="10" fill="none"/><path d="M161.61 163.664l13.718-9.164" stroke-width="1.2" stroke="#000" stroke-miterlimit="10" fill="none"/><path d="M147.895 172.832l-15.48-5.707" stroke-width="1.2" stroke="#00f" stroke-miterlimit="10" fill="none"/><path d="M132.414 167.125l-15.476-5.707" stroke-width="1.2" stroke="#000" stroke-miterlimit="10" fill="none"/><path d="M142.895 164.832h10v16h-10zm0 0" fill="#fff"/><use xlink:href="#a" x="142.895" y="177.208" fill="#00f"/><path d="M116.938 161.418l-5.59-32.52M116.938 161.418L91.57 182.52M111.348 128.898l25.363-21.1M108.918 120.82l20.293-16.882M80.39 117.48l30.958 11.418M136.71 107.797l-5.59-32.516M131.12 75.28l-30.956-11.417M125.336 81.422L100.57 72.29M100.164 63.863L74.797 84.965M74.797 84.965l5.594 32.515M83.008 86.902l4.472 26.012M91.57 182.52l-30.953-11.418M85.79 188.66l-24.767-9.133M97.164 215.035L91.57 182.52M60.617 171.102l-25.367 21.1M35.25 192.203l5.59 32.516M43.46 194.137l4.474 26.015M40.84 224.72l30.957 11.417M71.797 236.137l25.367-21.102M69.37 228.06l20.294-16.884M209.36 142.94l15.874-4.48" stroke-width="1.2" stroke="#000" stroke-miterlimit="10" fill="none"/><path d="M225.234 138.46l15.88-4.48M241.113 133.98l11.817 11.512" stroke-width="1.2" stroke="#00f" stroke-miterlimit="10" fill="none"/><path d="M252.93 145.492l11.82 11.512" stroke-width="1.2" stroke="#000" stroke-miterlimit="10" fill="none"/><path d="M231.113 125.98h20v16h-20zm0 0" fill="#fff"/><g fill="#00f"><use xlink:href="#a" x="231.113" y="138.356"/><use xlink:href="#b" x="241.083" y="138.356"/></g></g></svg>
